resources/haticons/SVG/subtitles_off.svg

<!-- Generated by IcoMoon.io -->
<svg version="1.1" xmlns="http://www.w3.org/2000/svg" width="24" height="24" viewBox="0 0 24 24">
<title>subtitles_off</title>
<path d="M20.016 3.984h-13.172l7.969 8.016h5.203v2.016h-3.188l4.922 4.922q0.234-0.469 0.234-0.938v-12q0-0.844-0.586-1.43t-1.383-0.586zM1.031 3.891l1.219 1.172q-0.234 0.469-0.234 0.938v12q0 0.844 0.586 1.43t1.383 0.586h13.172l2.953 2.953 1.453-1.406-19.125-19.125zM8.016 12v2.016h-4.031v-2.016h4.031zM14.016 16.828v1.172h-10.031v-2.016h9.188z"></path>
</svg>

<svg xmlns="http://www.w3.org/2000/svg" width="24" height="24"><path d="M20.016 3.984H6.844L14.813 12h5.203v2.016h-3.188l4.922 4.922q.234-.469.234-.938V6q0-.844-.586-1.43t-1.383-.586zM1.031 3.891L2.25 5.063q-.234.469-.234.938v12q0 .844.586 1.43t1.383.586h13.172l2.953 2.953 1.453-1.406L2.438 2.439zM8.016 12v2.016H3.985V12h4.031zm6 4.828V18H3.985v-2.016h9.188z"/></svg>
